X:111
T:Eatwick Assembly. JJo.111
B:J.Johnson Choice Collection Vol 8 1758
Z:vmp.Simon Wilson 2013 www.village-music-project.org.uk
Z:Dance added by John Chambers 2017
M:C|
L:1/8
%Q:1/2=80
K:G
|: D |\
DGGA    B2AG | FGAB {d}c2BA | Bdef gdBG | FAGF {F}TE3D |
DGGA {c}B2AG | FGAB    c2BA | Bdef gbgd | B2G2     G3 :|
|: d |\
gdgb b2ag | fafd {e}Td3c/B/ | cfac'   Bdgb | A2D2 D3D |
DGGA ABBG | FAcf     acBA   | BdBG {F}TE3D | E2G2 TG3 :|
%%begintext align
%% The 1st Man cast off and turn the 3d Wo. cast
%% up to the Top and turn your Partners .|.
%% 1st Wo cast off and turn the 3d Man cast up
%% and turn your Partner .||. 1st Cu. lead thro' the
%% 3d Cu. the 2d Cu. following them at the same time
%% come up to the Top and hands 4 round .||. cross
%% over half figure Right and Left at Top :||:
%%endtext
